X: 18176
T: Humours Of Ennistymon, The
R: jig
M: 6/8
K: Gmajor
|:BAB GBd|cBc A2c|BAB GBd|cAG FED|
BAB GBd|cBc ABc|dBd ecA|1 AGF G2 A:|2 BAF G2 e||
|:f2f fed|cAG FGA|Bgg gfg|afd d2 e|
f2f fed|cAG FGA|BAB cAF|1 AGF G2 e:|2 AGF GBd||
gdB gdB|ecA ecA|BAB GBd|cBA FGA|
gdB gdB|ecA ecA|BAB GBd|cAF GBd|
gdB gdB|ecA ecA|BAB GBd|cBA FGA|
BAB GBd|cBc ABc|dBd ecA|AGF G3||

